en/_assets/api-gateway/spec-constructor/http.svg

<?xml version="1.0" encoding="UTF-8"?>
<svg xmlns="http://www.w3.org/2000/svg" xmlns:xlink="http://www.w3.org/1999/xlink" width="16px" height="16px" viewBox="0 0 16 16" version="1.1">
<g id="surface1">
<path style=" stroke:none;fill-rule:evenodd;fill:rgb(32.156863%,50.980392%,100%);fill-opacity:1;" d="M 2 1 C 0.894531 1 0 1.894531 0 3 L 0 13 C 0 14.105469 0.894531 15 2 15 L 14 15 C 15.105469 15 16 14.105469 16 13 L 16 3 C 16 1.894531 15.105469 1 14 1 Z M 1 3 C 1 2.449219 1.449219 2 2 2 L 14 2 C 14.550781 2 15 2.449219 15 3 L 15 13 C 15 13.550781 14.550781 14 14 14 L 2 14 C 1.449219 14 1 13.550781 1 13 Z M 5.25 7.0625 L 5.609375 8.5 L 4.890625 8.5 Z M 6.015625 10.121094 L 5.859375 9.5 L 4.640625 9.5 L 4.484375 10.121094 C 4.417969 10.390625 4.148438 10.550781 3.878906 10.484375 C 3.609375 10.417969 3.449219 10.148438 3.515625 9.878906 L 4.453125 6.121094 C 4.546875 5.757812 4.875 5.5 5.25 5.5 C 5.625 5.5 5.953125 5.757812 6.046875 6.121094 L 6.984375 9.878906 C 7.050781 10.148438 6.890625 10.417969 6.621094 10.484375 C 6.351562 10.550781 6.082031 10.390625 6.015625 10.121094 Z M 8 5.5 C 7.722656 5.5 7.5 5.722656 7.5 6 L 7.5 10 C 7.5 10.277344 7.722656 10.5 8 10.5 C 8.277344 10.5 8.5 10.277344 8.5 10 L 8.5 9 C 8.914062 9 9.40625 8.933594 9.808594 8.667969 C 10.246094 8.375 10.5 7.894531 10.5 7.25 C 10.5 6.605469 10.246094 6.125 9.808594 5.832031 C 9.40625 5.566406 8.914062 5.5 8.5 5.5 Z M 9.253906 7.832031 C 9.09375 7.941406 8.835938 8 8.5 8 L 8.5 6.5 C 8.835938 6.5 9.09375 6.558594 9.253906 6.667969 C 9.378906 6.75 9.5 6.894531 9.5 7.25 C 9.5 7.605469 9.378906 7.75 9.253906 7.832031 Z M 11.5 5.5 C 11.777344 5.5 12 5.722656 12 6 L 12 10 C 12 10.277344 11.777344 10.5 11.5 10.5 C 11.222656 10.5 11 10.277344 11 10 L 11 6 C 11 5.722656 11.222656 5.5 11.5 5.5 Z M 11.5 5.5 "/>
</g>
</svg>

<svg xmlns="http://www.w3.org/2000/svg" width="16" height="16" viewBox="0 0 16 16">
    <path d="M2 1a2 2 0 0 0-2 2v10a2 2 0 0 0 2 2h12a2 2 0 0 0 2-2V3a2 2 0 0 0-2-2ZM1 3c0-.55.45-1 1-1h12c.55 0 1 .45 1 1v10c0 .55-.45 1-1 1H2c-.55 0-1-.45-1-1Zm4.25 4.063L5.61 8.5h-.72Zm.766 3.058L5.859 9.5H4.641l-.157.621a.497.497 0 0 1-.605.363.497.497 0 0 1-.363-.605l.937-3.758A.827.827 0 0 1 5.25 5.5c.375 0 .703.258.797.621l.937 3.758a.497.497 0 0 1-.363.605.497.497 0 0 1-.605-.363ZM8 5.5c-.277 0-.5.223-.5.5v4a.499.499 0 1 0 1 0V9c.414 0 .906-.066 1.309-.332.437-.293.691-.773.691-1.418 0-.645-.254-1.125-.691-1.418C9.406 5.566 8.914 5.5 8.5 5.5Zm1.254 2.332c-.16.11-.418.168-.754.168V6.5c.336 0 .594.059.754.168.125.082.246.227.246.582s-.121.5-.246.582ZM11.5 5.5c.277 0 .5.223.5.5v4c0 .277-.223.5-.5.5a.498.498 0 0 1-.5-.5V6c0-.277.223-.5.5-.5Zm0 0" style="stroke:none;fill-rule:evenodd;fill:#5282ff;fill-opacity:1"/>
</svg>
